X:19003
T:Seven Joys of Mary
T:The First Good Joy that Mary Had
R:Jig
C:Trad.
O:England
Z:Paul Hardy's Xmas Tunebook 2019 (see www.paulhardy.net). Creative Commons cc by-nc-sa licenced.
M:6/8
L:1/8
Q:3/8=100
K:G
D|"G"G2 G G2 A|B2 A G2 G|"D"A2 A FE F|"G"G3 "D"z2:|
A|"D"A2 A A2 A|A2 B cB A|"G"B2 A B2 A|B2 c "D"d3-|d3 d2|
c|"G"B2 A "C"G2 c|"G"B2 A G2 G|"D"A2 A FE F|"G"G3 z2|]
W:The first good joy that Mary had, It was the joy of one,
W:To see her ownsome Jesus Christ when he was first her son,
W:When he was first her son, good man, and blessed may he be.
W:O Father, Son and Holy Ghost, through all eternity.

